static/img/icon/twitter-light-icon.svg

<svg width="16" height="16" viewBox="0 0 16 16" fill="none" xmlns="http://www.w3.org/2000/svg">
<path d="M14.3553 4.741C14.3655 4.88313 14.3655 5.02528 14.3655 5.16741C14.3655 9.50241 11.066 14.4973 5.03553 14.4973C3.17766 14.4973 1.45178 13.9593 0 13.0253C0.263969 13.0557 0.51775 13.0659 0.791875 13.0659C2.32484 13.0659 3.73603 12.5481 4.86294 11.6649C3.42131 11.6344 2.21319 10.6903 1.79694 9.39075C2 9.42119 2.20303 9.4415 2.41625 9.4415C2.71066 9.4415 3.00509 9.40088 3.27919 9.32985C1.77666 9.02525 0.649719 7.70547 0.649719 6.11157V6.07097C1.08625 6.31463 1.59391 6.46691 2.13194 6.48719C1.24869 5.89835 0.670031 4.89329 0.670031 3.75622C0.670031 3.1471 0.832438 2.58872 1.11672 2.10141C2.73094 4.09125 5.15734 5.39072 7.87813 5.53288C7.82738 5.28922 7.79691 5.03544 7.79691 4.78163C7.79691 2.9745 9.25884 1.50244 11.0761 1.50244C12.0202 1.50244 12.873 1.89838 13.472 2.53797C14.2131 2.39585 14.9238 2.12172 15.5533 1.7461C15.3096 2.50754 14.7918 3.14713 14.1116 3.55319C14.7715 3.48216 15.4111 3.29938 15.9999 3.0456C15.5533 3.69532 14.9949 4.27397 14.3553 4.741V4.741Z" fill="black"/>
</svg>

<svg xmlns="http://www.w3.org/2000/svg" width="16" height="16" fill="none" viewBox="0 0 16 16"><path fill="#000" d="M14.355 4.741c.01.142.01.284.01.426 0 4.335-3.299 9.33-9.33 9.33A9.27 9.27 0 0 1 0 13.025c.264.03.518.04.792.04a6.57 6.57 0 0 0 4.07-1.4A3.285 3.285 0 0 1 1.798 9.39c.203.03.406.05.62.05.294 0 .588-.04.862-.111A3.28 3.28 0 0 1 .65 6.112V6.07c.437.244.945.396 1.483.416A3.28 3.28 0 0 1 .67 3.757c0-.61.162-1.168.447-1.656a9.32 9.32 0 0 0 6.761 3.432 3.7 3.7 0 0 1-.081-.751 3.28 3.28 0 0 1 3.28-3.28c.943 0 1.796.396 2.395 1.036a6.5 6.5 0 0 0 2.081-.792 3.27 3.27 0 0 1-1.441 1.807c.66-.07 1.3-.254 1.888-.507a7 7 0 0 1-1.645 1.695"/></svg>
